dist/assets/images/icons/ico-slide-11.svg

<svg width="23" height="36" viewBox="0 0 23 36" fill="none" xmlns="http://www.w3.org/2000/svg">
<path d="M18.35 10.7499H14.6106C14.6079 12.4069 14.607 14.9018 14.6104 15.0752C14.622 15.6704 14.3567 16.2819 13.975 16.931C13.8454 17.1513 13.5 17.679 13.2027 18.129C13.0508 18.3591 12.9062 18.5764 12.7997 18.7362L12.6722 18.9274L12.6369 18.9802L12.6276 18.9941C11.3331 20.9937 10.75 22.5078 10.75 24.265V34.2491H22.25V24.265C22.25 22.3973 21.6507 20.843 20.3513 18.8846C20.3393 18.8664 20.2849 18.7871 20.2041 18.6693C19.8933 18.2159 19.1915 17.1924 19.0052 16.8873C18.6186 16.2538 18.35 15.6584 18.35 15.0645V10.7499ZM10.6336 34.2472C10.6335 34.2472 10.6338 34.2474 10.6345 34.2476L10.6336 34.2472Z" stroke="#DF0112" stroke-width="1.5"/>
<path d="M10.45 7.15047H5.50157C5.49825 8.71844 5.49702 10.0334 5.50128 10.2553C5.51444 10.9413 5.21308 11.6663 4.74594 12.4744C4.58956 12.7449 4.16789 13.4006 3.80067 13.9661C3.6138 14.2539 3.43607 14.5259 3.3051 14.7259L3.14826 14.965L3.10487 15.0311L3.09346 15.0484L3.09269 15.0496C1.48902 17.5697 0.75 19.5038 0.75 21.7589V34.4449C0.764164 34.4479 0.780912 34.45 0.799999 34.45H15.2C15.2191 34.45 15.2358 34.4479 15.25 34.4449V21.7589C15.25 19.3667 14.4921 17.3824 12.8811 14.9119C12.8642 14.8861 12.792 14.779 12.6861 14.6218C12.2972 14.0447 11.4536 12.7928 11.2281 12.417C10.7554 11.6291 10.45 10.9232 10.45 10.238V7.15047Z" fill="#E5E5E5" stroke="#DF0112" stroke-width="1.5"/>
<path d="M5.5185 1.28178L5.5185 1.28188L4.76851 1.27932L5.5185 1.2819L5.5185 1.28196L5.5185 1.28221L5.5185 1.28321L5.51848 1.28718L5.51843 1.3029L5.51822 1.3644L5.51744 1.59918L5.5147 2.44821C5.51302 2.9774 5.51096 3.64669 5.50889 4.37041H10.4502V1.27596C10.4502 1.13769 10.2366 0.75 9.59487 0.75H6.37808C5.73349 0.75 5.51898 1.13598 5.5185 1.28178Z" stroke="#0000FF" stroke-width="1.5"/>
</svg>

<svg width="23" height="36" fill="none" xmlns="http://www.w3.org/2000/svg"><path d="M18.35 10.75h-3.74a965.51 965.51 0 000 4.325c.012.595-.253 1.207-.635 1.856-.13.22-.475.748-.772 1.198l-.403.607-.128.191-.035.053-.01.014c-1.294 2-1.877 3.514-1.877 5.271v9.984h11.5v-9.984c0-1.868-.6-3.422-1.899-5.38l-.147-.216c-.31-.453-1.012-1.477-1.199-1.782-.386-.633-.655-1.229-.655-1.822V10.75zm-7.716 23.497s0 0 0 0h0z" stroke="#DF0112" stroke-width="1.5"/><path d="M10.45 7.15H5.502a385.497 385.497 0 000 3.105c.012.686-.289 1.411-.756 2.22-.156.27-.578.926-.945 1.491l-.496.76-.157.239-.043.066-.012.017v.002C1.489 17.57.75 19.504.75 21.759v12.686c.014.003.03.005.05.005h14.4c.02 0 .036-.002.05-.005V21.759c0-2.392-.758-4.377-2.369-6.847l-.195-.29c-.389-.577-1.232-1.83-1.458-2.205-.473-.788-.778-1.494-.778-2.179V7.15z" fill="#E5E5E5" stroke="#DF0112" stroke-width="1.5"/><path d="M5.519 1.282h0l-.75-.003.75.003h0v.082l-.002.235-.002.85-.006 1.921h4.941V1.276c0-.138-.213-.526-.855-.526H6.378c-.645 0-.859.386-.86.532z" stroke="#00F" stroke-width="1.5"/></svg>
